;FLAVOR:Marlin
;TIME:1571
;Filament used: 0.678747m
;Layer height: 0.2
;MINX:90.091
;MINY:87.688
;MINZ:0.3
;MAXX:129.891
;MAXY:127.496
;MAXZ:17.5
;Generated with Cura_SteamEngine 5.2.2
M82 ;absolute extrusion mode
; Ender 3 Custom Start G-code
G92 E0 ; Reset Extruder
G28 ; Home all axes
M104 S175 ; Start heating up the nozzle most of the way
M190 S90 ; Start heating the bed, wait until target temperature reached
M109 S250.0 ; Finish heating the nozzle
G1 Z2.0 F3000 ; Move Z Axis up little to prevent scratching of Heat Bed
G1 X0.1 Y20 Z0.3 F5000.0 ; Move to start position
G1 X0.1 Y200.0 Z0.3 F1500.0 E15 ; Draw the first line
G1 X0.4 Y200.0 Z0.3 F5000.0 ; Move to side a little
G1 X0.4 Y20 Z0.3 F1500.0 E30 ; Draw the second line
G92 E0 ; Reset Extruder
G1 Z2.0 F3000 ; Move Z Axis up little to prevent scratching of Heat Bed
G1 X5 Y20 Z0.3 F5000.0 ; Move over to prevent blob squish
G92 E0
G92 E0
G1 F2400 E-0.3
;LAYER_COUNT:87
;LAYER:0
M107
G0 F9000 X95.837 Y93.605 Z0.3
;TYPE:SKIRT
G1 F1500 E0
G1 F2100 X96.172 Y93.274 E0.02232
G1 X96.954 Y92.572 E0.07213
G1 X97.91 Y91.793 E0.13058
G1 X98.622 Y91.259 E0.17276
G1 X98.898 Y91.069 E0.18864
G1 X99.488 Y90.69 E0.22187
G1 X100.063 Y90.346 E0.25363
G1 X101.098 Y89.799 E0.30912
G1 X102.211 Y89.285 E0.36722
G1 X102.976 Y88.967 E0.40649
G1 X103.726 Y88.702 E0.44419
G1 X104.226 Y88.544 E0.46904
G1 X104.895 Y88.353 E0.50201
G1 X105.831 Y88.14 E0.54751
G1 X107.048 Y87.919 E0.60613
G1 X107.94 Y87.794 E0.64883
G1 X108.287 Y87.76 E0.66535
G1 X108.854 Y87.72 E0.69229
G1 X109.245 Y87.702 E0.71084
G1 X109.896 Y87.688 E0.7417
G1 X110.808 Y87.715 E0.78495
G1 X111.921 Y87.795 E0.83783
G1 X112.74 Y87.885 E0.87689
G1 X113.207 Y87.954 E0.89926
G1 X113.886 Y88.076 E0.93196
G1 X114.507 Y88.208 E0.96205
G1 X115.699 Y88.532 E1.02059
G1 X116.872 Y88.923 E1.07919
G1 X117.757 Y89.256 E1.12401
G1 X118.553 Y89.622 E1.16553
G1 X119.247 Y89.97 E1.20233
G1 X120.195 Y90.506 E1.25395
G1 X120.875 Y90.936 E1.29208
G1 X121.569 Y91.4 E1.33165
G1 X122.197 Y91.859 E1.36851
G1 X122.853 Y92.389 E1.40848
G1 X123.114 Y92.614 E1.42482
G1 X123.589 Y93.045 E1.45522
G1 X124.042 Y93.493 E1.48541
G1 X124.482 Y93.958 E1.51575
G1 X125.061 Y94.593 E1.55648
G1 X125.523 Y95.132 E1.59013
G1 X125.699 Y95.352 E1.60348
G1 X126.093 Y95.877 E1.63459
G1 X126.389 Y96.296 E1.65891
G1 X126.726 Y96.799 E1.6876
G1 X127.184 Y97.567 E1.72998
G1 X127.77 Y98.647 E1.78822
G1 X128.189 Y99.505 E1.83348
G1 X128.491 Y100.221 E1.87031
G1 X128.647 Y100.623 E1.89074
G1 X128.89 Y101.306 E1.9251
G1 X129.161 Y102.232 E1.97083
G1 X129.459 Y103.444 E2.02999
G1 X129.621 Y104.226 E2.06784
G1 X129.723 Y104.881 E2.09926
G1 X129.778 Y105.313 E2.1199
G1 X129.859 Y106.193 E2.16178
G1 X129.891 Y107.144 E2.20688
G1 X129.879 Y108.401 E2.26646
G1 X129.819 Y109.451 E2.31631
G1 X129.768 Y109.934 E2.33932
G1 X129.696 Y110.487 E2.36576
G1 X129.624 Y110.945 E2.38773
G1 X129.439 Y111.862 E2.43207
G1 X129.283 Y112.482 E2.46237
G1 X129.02 Y113.446 E2.50973
G1 X128.658 Y114.544 E2.56452
G1 X128.494 Y114.965 E2.58594
G1 X128.148 Y115.78 E2.6279
G1 X127.658 Y116.766 E2.68009
G1 X127.055 Y117.841 E2.73851
G1 X126.632 Y118.533 E2.77695
G1 X126.246 Y119.103 E2.80957
G1 X125.765 Y119.753 E2.8479
G1 X125.493 Y120.097 E2.86868
G1 X124.86 Y120.828 E2.91451
G1 X124.295 Y121.426 E2.95351
G1 X123.729 Y122.003 E2.99181
G1 X122.691 Y122.929 E3.05774
G1 X121.986 Y123.482 E3.10021
G1 X121.004 Y124.169 E3.15701
G1 X119.918 Y124.844 E3.21761
G1 X118.924 Y125.393 E3.27143
G1 X118.224 Y125.724 E3.30813
G1 X117.726 Y125.942 E3.3339
G1 X116.646 Y126.348 E3.38858
G1 X115.425 Y126.736 E3.4493
G1 X114.451 Y126.997 E3.4971
G1 X114.018 Y127.092 E3.51811
G1 X113.384 Y127.212 E3.54869
G1 X112.848 Y127.297 E3.57441
G1 X111.73 Y127.416 E3.6277
G1 X110.495 Y127.484 E3.68632
G1 X109.571 Y127.496 E3.73012
G1 X108.862 Y127.469 E3.76375
G1 X108.434 Y127.441 E3.78408
G1 X107.602 Y127.358 E3.8237
G1 X106.74 Y127.222 E3.86506
G1 X105.574 Y126.991 E3.9214
G1 X104.789 Y126.805 E3.95964
G1 X104.448 Y126.711 E3.9764
G1 X103.74 Y126.49 E4.01156
G1 X103.108 Y126.269 E4.04329
G1 X102.008 Y125.817 E4.09965
G1 X101.011 Y125.342 E4.152
G1 X100.411 Y125.033 E4.18398
G1 X100.032 Y124.823 E4.20452
G1 X99.272 Y124.36 E4.2467
G1 X98.663 Y123.955 E4.28136
G1 X97.67 Y123.211 E4.34017
G1 X96.671 Y122.37 E4.40206
G1 X95.692 Y121.437 E4.46616
G1 X95.228 Y120.937 E4.49849
G1 X94.759 Y120.402 E4.53221
G1 X94.177 Y119.657 E4.57702
G1 X93.483 Y118.685 E4.63362
G1 X92.887 Y117.754 E4.68602
G1 X92.581 Y117.219 E4.71523
G1 X92.349 Y116.792 E4.73826
G1 X92.157 Y116.419 E4.75814
G1 X91.684 Y115.37 E4.81268
G1 X91.3 Y114.382 E4.86292
G1 X91.034 Y113.613 E4.90149
G1 X90.842 Y112.985 E4.93261
G1 X90.63 Y112.185 E4.97184
G1 X90.519 Y111.692 E4.99579
G1 X90.331 Y110.605 E5.04807
G1 X90.206 Y109.578 E5.09711
G1 X90.145 Y108.907 E5.12904
G1 X90.109 Y108.306 E5.15758
G1 X90.091 Y107.418 E5.19967
G1 X90.104 Y106.797 E5.22911
G1 X90.209 Y105.495 E5.29102
G1 X90.379 Y104.286 E5.34888
G1 X90.536 Y103.42 E5.3906
G1 X90.626 Y103.017 E5.41017
G1 X90.791 Y102.373 E5.44168
G1 X90.955 Y101.803 E5.46979
G1 X91.312 Y100.762 E5.52195
G1 X91.643 Y99.934 E5.56421
G1 X91.869 Y99.396 E5.59187
G1 X92.146 Y98.795 E5.62323
G1 X92.311 Y98.464 E5.64076
G1 X92.651 Y97.834 E5.67469
G1 X92.965 Y97.295 E5.70426
G1 X93.602 Y96.324 E5.7593
G1 X94.297 Y95.377 E5.81497
G1 X94.931 Y94.592 E5.8628
G1 X95.334 Y94.137 E5.89161
G1 X95.837 Y93.605 E5.92631
G0 F9000 X96.118 Y93.89
G1 F2100 X96.453 Y93.559 E5.94863
G1 X97.207 Y92.882 E5.99665
G1 X98.163 Y92.103 E6.0551
G1 X98.848 Y91.589 E6.09569
G1 X99.124 Y91.399 E6.11157
G1 X99.693 Y91.034 E6.14361
G1 X100.268 Y90.69 E6.17537
G1 X101.266 Y90.163 E6.22886
G1 X102.379 Y89.649 E6.28697
G1 X103.116 Y89.341 E6.32482
G1 X103.846 Y89.084 E6.3615
G1 X104.346 Y88.926 E6.38636
G1 X105 Y88.738 E6.41861
G1 X105.902 Y88.534 E6.46244
G1 X107.119 Y88.313 E6.52106
G1 X107.979 Y88.193 E6.56222
G1 X108.326 Y88.159 E6.57874
G1 X108.873 Y88.119 E6.60474
G1 X109.264 Y88.101 E6.62329
G1 X109.9 Y88.088 E6.65344
G1 X110.779 Y88.114 E6.69512
G1 X111.892 Y88.194 E6.74801
G1 X112.681 Y88.281 E6.78563
G1 X113.148 Y88.35 E6.808
G1 X113.803 Y88.468 E6.83955
G1 X114.424 Y88.6 E6.86964
G1 X115.572 Y88.912 E6.92602
G1 X116.745 Y89.303 E6.98462
G1 X117.603 Y89.625 E7.02806
G1 X118.373 Y89.98 E7.06824
G1 X119.067 Y90.328 E7.10504
G1 X119.981 Y90.844 E7.15479
G1 X120.661 Y91.274 E7.19292
G1 X121.345 Y91.731 E7.23191
G1 X121.95 Y92.173 E7.26742
G1 X122.227 Y92.391 E7.28413
G1 X122.853 Y92.917 E7.32288
G1 X123.316 Y93.338 E7.35254
G1 X123.753 Y93.769 E7.38163
G1 X124.187 Y94.227 E7.41154
G1 X124.766 Y94.862 E7.45226
G1 X125.21 Y95.382 E7.48467
G1 X125.386 Y95.602 E7.49803
G1 X125.767 Y96.108 E7.52805
G1 X126.063 Y96.527 E7.55236
G1 X126.392 Y97.018 E7.58037
G1 X126.833 Y97.758 E7.6212
G1 X127.419 Y98.838 E7.67944
G1 X127.822 Y99.664 E7.723
G1 X128.118 Y100.366 E7.75911
G1 X128.274 Y100.768 E7.77954
G1 X128.511 Y101.435 E7.81309
G1 X128.772 Y102.327 E7.85714
G1 X129.07 Y103.539 E7.9163
G1 X129.227 Y104.293 E7.9528
G1 X129.326 Y104.931 E7.9834
G1 X129.381 Y105.363 E8.00404
G1 X129.435 Y105.887 E8.02901
G1 X129.461 Y106.224 E8.04503
G1 X129.492 Y107.14 E8.08847
G1 X129.48 Y108.397 E8.14805
G1 X129.421 Y109.409 E8.19609
G1 X129.37 Y109.892 E8.21911
G1 X129.3 Y110.425 E8.24459
G1 X129.228 Y110.883 E8.26656
G1 X129.051 Y111.766 E8.30925
G1 X128.897 Y112.377 E8.33911
G1 X128.634 Y113.341 E8.38647
G1 X128.285 Y114.399 E8.43927
G1 X128.121 Y114.82 E8.46069
G1 X127.781 Y115.62 E8.50189
G1 X127.309 Y116.571 E8.5522
G1 X126.706 Y117.646 E8.61062
G1 X126.299 Y118.313 E8.64766
G1 X126.15 Y118.538 E8.66045
G1 X125.745 Y119.114 E8.69382
G1 X125.451 Y119.504 E8.71697
G1 X125.179 Y119.848 E8.73775
G1 X124.569 Y120.554 E8.78197
G1 X124.004 Y121.152 E8.82097
G1 X123.444 Y121.722 E8.85884
G1 X122.444 Y122.614 E8.92235
G1 X121.739 Y123.167 E8.96482
G1 X120.793 Y123.83 E9.01957
G1 X119.707 Y124.505 E9.08017
G1 X118.749 Y125.034 E9.13204
G1 X118.064 Y125.357 E9.16793
G1 X117.566 Y125.575 E9.1937
G1 X116.525 Y125.967 E9.24642
G1 X115.304 Y126.355 E9.30714
G1 X114.366 Y126.607 E9.35318
G1 X113.933 Y126.702 E9.37419
G1 X113.321 Y126.817 E9.4037
G1 X112.785 Y126.902 E9.42942
G1 X111.708 Y127.017 E9.48076
G1 X110.473 Y127.085 E9.53938
G1 X109.582 Y127.097 E9.58161
G1 X109.272 Y127.088 E9.59631
G1 X108.46 Y127.041 E9.63486
G1 X107.648 Y126.96 E9.67354
G1 X106.818 Y126.83 E9.71336
G1 X105.652 Y126.599 E9.76969
G1 X104.895 Y126.42 E9.80656
G1 X104.554 Y126.326 E9.82333
G1 X103.872 Y126.113 E9.85719
G1 X103.24 Y125.892 E9.88892
G1 X102.18 Y125.455 E9.94326
G1 X101.183 Y124.98 E9.99561
G1 X100.605 Y124.683 E10.02641
G1 X100.226 Y124.473 E10.04694
G1 X99.493 Y124.027 E10.08761
G1 X98.884 Y123.622 E10.12227
G1 X97.927 Y122.905 E10.17895
G1 X96.928 Y122.064 E10.24084
G1 X95.985 Y121.165 E10.30259
G1 X95.521 Y120.665 E10.33492
G1 X95.063 Y120.142 E10.36787
G1 X94.502 Y119.424 E10.41106
G1 X93.808 Y118.452 E10.46766
G1 X93.234 Y117.556 E10.5181
G1 X92.928 Y117.021 E10.54731
G1 X92.704 Y116.609 E10.56953
G1 X92.512 Y116.236 E10.58942
G1 X92.057 Y115.225 E10.64196
G1 X91.673 Y114.237 E10.6922
G1 X91.416 Y113.496 E10.72937
G1 X91.224 Y112.868 E10.7605
G1 X91.02 Y112.097 E10.7983
G1 X90.909 Y111.604 E10.82225
G1 X90.728 Y110.557 E10.87261
G1 X90.603 Y109.53 E10.92164
G1 X90.544 Y108.883 E10.95244
G1 X90.508 Y108.282 E10.98097
G1 X90.491 Y107.426 E11.02155
G1 X90.504 Y106.805 E11.05099
G1 X90.605 Y105.551 E11.11062
G1 X90.775 Y104.342 E11.16848
G1 X90.927 Y103.508 E11.20866
G1 X91.017 Y103.105 E11.22823
G1 X91.175 Y102.484 E11.2586
G1 X91.339 Y101.914 E11.28671
G1 X91.683 Y100.91 E11.33701
G1 X92.014 Y100.082 E11.37928
G1 X92.237 Y99.553 E11.40649
G1 X92.504 Y98.973 E11.43675
G1 X92.669 Y98.642 E11.45428
G1 X92.997 Y98.035 E11.48698
G1 X93.311 Y97.496 E11.51654
G1 X93.924 Y96.56 E11.56957
G1 X94.619 Y95.613 E11.62525
G1 X95.23 Y94.857 E11.67132
G1 X95.633 Y94.402 E11.70013
G1 X96.118 Y93.89 E11.73355
G0 F9000 X96.399 Y94.174
G1 F2100 X96.734 Y93.843 E11.75587
G1 X97.46 Y93.192 E11.80209
G1 X98.416 Y92.413 E11.86054
G1 X99.075 Y91.918 E11.8996
G1 X99.351 Y91.728 E11.91548
G1 X99.898 Y91.377 E11.94629
G1 X100.473 Y91.033 E11.97804
G1 X101.433 Y90.526 E12.0295
G1 X102.546 Y90.012 E12.0876
G1 X103.256 Y89.716 E12.12406
G1 X103.967 Y89.465 E12.1598
G1 X104.467 Y89.307 E12.18465
G1 X105.106 Y89.124 E12.21615
G1 X105.974 Y88.927 E12.25834
G1 X107.191 Y88.706 E12.31696
G1 X108.018 Y88.591 E12.35654
G1 X108.365 Y88.557 E12.37306
G1 X108.891 Y88.519 E12.39806
G1 X109.282 Y88.501 E12.41661
G1 X109.905 Y88.488 E12.44614
G1 X110.75 Y88.513 E12.48621
G1 X111.863 Y88.593 E12.5391
G1 X112.623 Y88.677 E12.57534
G1 X113.09 Y88.746 E12.59771
G1 X113.72 Y88.859 E12.62805
G1 X114.341 Y88.991 E12.65814
G1 X115.446 Y89.291 E12.71241
G1 X116.619 Y89.682 E12.77101
G1 X117.447 Y89.994 E12.81294
G1 X118.194 Y90.337 E12.8519
G1 X118.888 Y90.685 E12.8887
G1 X119.767 Y91.182 E12.93656
G1 X120.447 Y91.612 E12.97469
G1 X121.12 Y92.062 E13.01306
G1 X121.702 Y92.488 E13.04725
G1 X122.331 Y92.995 E13.08554
G1 X122.592 Y93.22 E13.10187
G1 X123.043 Y93.63 E13.13076
G1 X123.464 Y94.046 E13.15881
G1 X123.891 Y94.497 E13.18824
G1 X124.47 Y95.132 E13.22897
G1 X124.898 Y95.632 E13.26017
G1 X125.074 Y95.852 E13.27352
G1 X125.44 Y96.339 E13.30239
G1 X125.736 Y96.758 E13.32671
G1 X126.057 Y97.236 E13.354
G1 X126.481 Y97.948 E13.39327
G1 X127.067 Y99.028 E13.45151
G1 X127.455 Y99.824 E13.49348
G1 X127.745 Y100.511 E13.52882
G1 X127.901 Y100.913 E13.54926
G1 X128.133 Y101.564 E13.58202
G1 X128.384 Y102.423 E13.62443
G1 X128.682 Y103.635 E13.68359
G1 X128.833 Y104.361 E13.71873
G1 X128.929 Y104.982 E13.74852
G1 X128.984 Y105.414 E13.76916
G1 X129.036 Y105.917 E13.79312
G1 X129.062 Y106.254 E13.80914
G1 X129.092 Y107.136 E13.85097
G1 X129.08 Y108.393 E13.91055
G1 X129.024 Y109.367 E13.95679
G1 X128.973 Y109.85 E13.97981
G1 X128.905 Y110.363 E14.00433
G1 X128.833 Y110.821 E14.02631
G1 X128.662 Y111.671 E14.0674
G1 X128.511 Y112.272 E14.09677
G1 X128.248 Y113.236 E14.14413
G1 X127.912 Y114.253 E14.19489
G1 X127.595 Y115.047 E14.23542
G1 X127.415 Y115.46 E14.25677
G1 X126.96 Y116.375 E14.3052
G1 X126.357 Y117.45 E14.36362
G1 X125.965 Y118.092 E14.39927
G1 X125.596 Y118.636 E14.43043
G1 X125.137 Y119.256 E14.46699
G1 X124.865 Y119.6 E14.48777
G1 X124.278 Y120.279 E14.53031
G1 X123.713 Y120.877 E14.56931
G1 X123.159 Y121.441 E14.60678
G1 X122.197 Y122.3 E14.6679
G1 X121.492 Y122.853 E14.71037
G1 X120.581 Y123.49 E14.76306
G1 X119.495 Y124.165 E14.82366
G1 X118.574 Y124.674 E14.87353
G1 X117.903 Y124.991 E14.90871
G1 X117.405 Y125.209 E14.93447
G1 X116.404 Y125.586 E14.98517
G1 X115.183 Y125.974 E15.04589
G1 X114.28 Y126.216 E15.0902
G1 X113.847 Y126.311 E15.11121
G1 X113.259 Y126.422 E15.13957
G1 X112.723 Y126.507 E15.16529
G1 X111.686 Y126.618 E15.21472
G1 X110.451 Y126.686 E15.27334
G1 X109.594 Y126.697 E15.31396
G1 X108.914 Y126.67 E15.34622
G1 X108.486 Y126.642 E15.36655
G1 X107.695 Y126.563 E15.40422
G1 X106.896 Y126.438 E15.44255
G1 X105.73 Y126.207 E15.49889
G1 X105.001 Y126.034 E15.5344
G1 X104.66 Y125.94 E15.55117
G1 X104.004 Y125.735 E15.58374
G1 X103.372 Y125.514 E15.61547
G1 X102.352 Y125.094 E15.66776
G1 X101.355 Y124.619 E15.7201
G1 X100.798 Y124.333 E15.74977
G1 X100.419 Y124.123 E15.77031
G1 X99.715 Y123.694 E15.80938
G1 X99.106 Y123.289 E15.84405
G1 X98.185 Y122.599 E15.89859
G1 X97.186 Y121.758 E15.96048
G1 X96.278 Y120.893 E16.01992
G1 X95.814 Y120.393 E16.05225
G1 X95.367 Y119.883 E16.08439
G1 X94.828 Y119.192 E16.12593
G1 X94.134 Y118.22 E16.18253
G1 X93.581 Y117.357 E16.23111
G1 X93.275 Y116.822 E16.26033
G1 X92.868 Y116.053 E16.30156
G1 X92.43 Y115.08 E16.35214
G1 X92.046 Y114.092 E16.40238
G1 X91.799 Y113.379 E16.43814
G1 X91.607 Y112.751 E16.46926
G1 X91.41 Y112.009 E16.50565
G1 X91.299 Y111.516 E16.5296
G1 X91.125 Y110.508 E16.57808
G1 X91 Y109.481 E16.62712
G1 X90.943 Y108.859 E16.65672
G1 X90.907 Y108.258 E16.68526
G1 X90.891 Y107.435 E16.72427
G1 X90.904 Y106.814 E16.75371
G1 X91.001 Y105.607 E16.8111
G1 X91.171 Y104.398 E16.86897
G1 X91.317 Y103.595 E16.90765
G1 X91.407 Y103.192 E16.92722
G1 X91.56 Y102.595 E16.95643
G1 X91.724 Y102.025 E16.98454
G1 X92.055 Y101.059 E17.03294
G1 X92.471 Y100.024 E17.08581
G1 X92.605 Y99.709 E17.10203
G1 X92.862 Y99.151 E17.13115
G1 X93.027 Y98.82 E17.14868
G1 X93.342 Y98.237 E17.18008
G1 X93.656 Y97.698 E17.20965
G1 X94.247 Y96.797 E17.26072
G1 X94.942 Y95.85 E17.31639
G1 X95.529 Y95.122 E17.36072
G1 X95.932 Y94.667 E17.38952
G1 X96.399 Y94.174 E17.42171
G1 F2400 E17.12171
G0 F9000 X109.961 Y107.57
G1 F1500 E17.42171
G1 F2100 X110.019 Y107.553 E17.42457
G1 X110.046 Y107.592 E17.42682
G1 X109.984 Y107.639 E17.43051
G1 X109.961 Y107.57 E17.43396
G0 F9000 X109.603 Y107.388
G1 F2100 X109.715 Y107.25 E17.44238
G1 X109.98 Y107.149 E17.45582
G1 X110.161 Y107.177 E17.4645
G1 X110.373 Y107.346 E17.47735
G1 X110.448 Y107.615 E17.49059
G1 X110.35 Y107.872 E17.50362
G1 X110.137 Y108.022 E17.51597
G1 X109.908 Y108.034 E17.52684
G1 X109.696 Y107.925 E17.53814
G1 X109.59 Y107.772 E17.54696
G1 X109.552 Y107.618 E17.55448
G1 X109.603 Y107.388 E17.56564
G0 F9000 X109.248 Y107.2
G1 F2100 X109.444 Y106.955 E17.58051
G1 X109.751 Y106.784 E17.59717
G1 X110.123 Y106.757 E17.61485
G1 X110.439 Y106.869 E17.63074
G1 X110.723 Y107.151 E17.64971
G1 X110.826 Y107.406 E17.66274
G1 X110.846 Y107.667 E17.67515
G1 X110.794 Y107.892 E17.68609
G1 X110.663 Y108.124 E17.69872
G1 X110.474 Y108.298 E17.7109
G1 X110.174 Y108.441 E17.72665
G1 X109.819 Y108.425 E17.74349
G1 X109.558 Y108.318 E17.75686
G1 X109.358 Y108.149 E17.76927
G1 X109.222 Y107.933 E17.78137
G1 X109.153 Y107.656 E17.7949
G1 X109.162 Y107.471 E17.80368
G1 X109.248 Y107.2 E17.81715
G0 F9000 X108.896 Y107.008
G1 F2100 X109.101 Y106.7 E17.83469
G1 X109.423 Y106.489 E17.85293
G1 X109.789 Y106.364 E17.87126
G1 X110.16 Y106.358 E17.88885
G1 X110.487 Y106.444 E17.90487
G1 X110.828 Y106.659 E17.92398
G1 X110.994 Y106.84 E17.93562
G1 X111.147 Y107.102 E17.95
G1 X111.217 Y107.314 E17.96058
G1 X111.245 Y107.708 E17.9793
G1 X111.164 Y108.047 E17.99582
